devices/64/input-mouse.svg

<?xml version="1.0" encoding="UTF-8" standalone="no"?>
<svg
   xmlns:dc="http://purl.org/dc/elements/1.1/"
   xmlns:cc="http://creativecommons.org/ns#"
   xmlns:rdf="http://www.w3.org/1999/02/22-rdf-syntax-ns#"
   xmlns:svg="http://www.w3.org/2000/svg"
   xmlns="http://www.w3.org/2000/svg"
   xmlns:xlink="http://www.w3.org/1999/xlink"
   version="1.1"
   width="64"
   height="64"
   id="svg2925">
  <defs
     id="defs2927">
    <linearGradient
       x1="14"
       y1="2"
       x2="32"
       y2="40"
       id="linearGradient2871"
       xlink:href="#linearGradient3208"
       gradientUnits="userSpaceOnUse"
       gradientTransform="matrix(2.8614465,0,0,1.3542361,-30.979973,-4.7461153)" />
    <linearGradient
       id="linearGradient3208">
      <stop
         id="stop3210"
         style="stop-color:#ffffff;stop-opacity:1"
         offset="0" />
      <stop
         id="stop3212"
         style="stop-color:#ffffff;stop-opacity:0"
         offset="1" />
    </linearGradient>
    <linearGradient
       x1="24.117819"
       y1="33.657772"
       x2="-32.011677"
       y2="33.657784"
       id="linearGradient2875"
       xlink:href="#linearGradient3775"
       gradientUnits="userSpaceOnUse"
       gradientTransform="matrix(2.2653959e-7,-0.96727559,1.0679179,4.7877698e-7,-3.943739,28.182207)" />
    <linearGradient
       id="linearGradient3775">
      <stop
         id="stop3777"
         style="stop-color:#ffffff;stop-opacity:1"
         offset="0" />
      <stop
         id="stop3779"
         style="stop-color:#ffffff;stop-opacity:0"
         offset="1" />
    </linearGradient>
    <linearGradient
       x1="18.601307"
       y1="0.85446119"
       x2="18.601307"
       y2="49.956139"
       id="linearGradient2878"
       xlink:href="#linearGradient3600-8"
       gradientUnits="userSpaceOnUse"
       gradientTransform="matrix(1.3527629,0,0,1.1474484,23.01074,2.8486952)" />
    <linearGradient
       id="linearGradient3600-8">
      <stop
         id="stop3602-2"
         style="stop-color:#f4f4f4;stop-opacity:1"
         offset="0" />
      <stop
         id="stop3604-5"
         style="stop-color:#dbdbdb;stop-opacity:1"
         offset="1" />
    </linearGradient>
    <linearGradient
       x1="-74.784531"
       y1="54.702854"
       x2="-74.784531"
       y2="2.103905"
       id="linearGradient2880"
       xlink:href="#linearGradient3104-5"
       gradientUnits="userSpaceOnUse"
       gradientTransform="matrix(1.0923517,0,0,1.0738408,103.37869,1.5698863)" />
    <linearGradient
       id="linearGradient3104-5">
      <stop
         id="stop3106-2"
         style="stop-color:#aaaaaa;stop-opacity:1"
         offset="0" />
      <stop
         id="stop3108-2"
         style="stop-color:#c8c8c8;stop-opacity:1"
         offset="1" />
    </linearGradient>
    <linearGradient
       id="linearGradient23419-5">
      <stop
         id="stop23421-7"
         style="stop-color:#000000;stop-opacity:1"
         offset="0" />
      <stop
         id="stop23423-0"
         style="stop-color:#000000;stop-opacity:0"
         offset="1" />
    </linearGradient>
    <radialGradient
       cx="23.334524"
       cy="41.63604"
       r="22.627417"
       fx="23.334524"
       fy="41.63604"
       id="radialGradient2923"
       xlink:href="#linearGradient23419-5"
       gradientUnits="userSpaceOnUse"
       gradientTransform="matrix(0.83968921,0,0,0.24304524,12.40625,47.380549)" />
  </defs>
  <metadata
     id="metadata2930">
    <rdf:RDF>
      <cc:Work
         rdf:about="">
        <dc:format>image/svg+xml</dc:format>
        <dc:type
           rdf:resource="http://purl.org/dc/dcmitype/StillImage" />
        <dc:title />
      </cc:Work>
    </rdf:RDF>
  </metadata>
  <g
     id="layer1">
    <path
       d="M 51,57.5 C 51.000855,60.537485 42.494107,63 32,63 21.505892,63 12.999023,60.537485 13,57.5 12.999145,54.462529 21.505892,52 32,52 c 10.494107,0 19.000964,2.462529 19,5.5 l 0,0 z"
       id="path23417-6"
       style="opacity:0.3;fill:url(#radialGradient2923);fill-opacity:1;fill-rule:evenodd;stroke:none;stroke-width:2;marker:none;visibility:visible;display:inline;overflow:visible" />
    <path
       d="m 31.94137,4.5004814 c -3.660766,0.082317 -7.783893,0.2942507 -11.244842,2.5643877 -0.09308,0.056187 -0.17855,0.1236943 -0.253643,0.2003428 -3.223115,3.8311641 -3.05439,8.6976591 -3.550929,13.3829021 -0.650246,10.37273 -0.61429,20.890451 1.056846,31.253475 -2.29e-4,0.01333 -2.29e-4,0.02667 0,0.04 0.543568,2.743677 2.34584,5.65586 5.664695,6.41097 0.03233,0.0076 0.05195,0.03308 0.08455,0.04 l 0,-0.04 c 5.035633,1.463303 10.47336,1.463701 15.514499,0.360617 2.610981,-0.57218 5.31625,-2.105196 6.256529,-4.888365 0.004,-0.01154 -0.004,-0.02808 0,-0.04 1.227253,-3.325076 1.203485,-6.748071 1.564132,-9.856866 0.01439,-0.01302 0.02846,-0.02636 0.0422,-0.04 C 47.747419,33.915663 47.701438,23.847941 46.356752,13.876589 46.170584,12.462469 45.868621,10.90595 45.13081,9.4690468 44.400994,8.047722 43.207357,6.7620662 41.452986,6.0632193 c -0.0081,-0.00257 0.0081,-0.036927 0,-0.040005 -0.01217,-0.00513 -0.02949,0.00513 -0.0422,0 -3.067219,-1.3050167 -6.41793,-1.410785 -9.384797,-1.522605 -0.02817,-8.711e-4 -0.05638,-8.711e-4 -0.08455,0 l -6.9e-5,-1.279e-4 z"
       id="path4487"
       style="color:#000000;fill:url(#linearGradient2878);fill-opacity:1;fill-rule:nonzero;stroke:url(#linearGradient2880);stroke-width:0.99992192;stroke-linecap:butt;stroke-linejoin:round;stroke-miterlimit:4;stroke-opacity:1;stroke-dasharray:none;stroke-dashoffset:0;marker:none;visibility:visible;display:inline;overflow:visible;enable-background:accumulate" />
    <path
       d="m 32.001588,5.4999998 c -3.702445,0.082218 -7.661926,0.3282467 -10.806756,2.365458 -3.223778,3.5228692 -2.674159,8.4430502 -3.2832,12.7431162 -0.66062,10.407597 -0.663286,20.921697 1.022553,31.246314 0.493829,2.461713 2.134028,4.962417 4.905696,5.54467 4.898502,1.422451 10.237582,1.396264 15.212423,0.321193 2.373609,-0.513719 4.672094,-1.851535 5.437584,-4.135074 1.168203,-3.10103 1.187232,-6.452179 1.567533,-9.689718 C 46.739763,33.895973 46.723427,23.807695 45.364804,13.857924 45.005107,11.15953 44.041078,8.0520994 41.090769,6.9222617 38.268917,5.7263098 35.047886,5.6133927 32.001588,5.4999998 z"
       id="rect1320-6-9-3"
       style="fill:none;stroke:url(#linearGradient2875);stroke-width:0.99999988;stroke-linecap:round;stroke-linejoin:round;stroke-miterlimit:4;stroke-opacity:1;stroke-dasharray:none;stroke-dashoffset:0;marker:none;visibility:visible;display:inline;overflow:visible" />
    <path
       d="m 31.999999,6.0000044 c -3.574773,0.080667 -7.38028,0.33456 -10.416666,2.3333333 C 18.47072,11.789738 19.004706,16.614405 18.416666,20.833338 17.96021,28.140774 17.816125,35.483636 18.375,42.791671 L 45.041666,15.208338 c -0.04179,-0.333529 -0.08023,-0.666778 -0.125,-1 -0.347294,-2.64748 -1.276427,-5.7248136 -4.125,-6.8333336 -2.724547,-1.1733866 -5.850414,-1.2637466 -8.791667,-1.375 z"
       id="rect3238"
       style="opacity:0.4;fill:url(#linearGradient2871);fill-opacity:1;fill-rule:nonzero;stroke:none;stroke-width:0.99992186;marker:none;visibility:visible;display:inline;overflow:visible;enable-background:accumulate" />
  </g>
</svg>

<svg xmlns="http://www.w3.org/2000/svg" xmlns:xlink="http://www.w3.org/1999/xlink" viewBox="0 0 64 64"><defs><linearGradient x1="14" y1="2" x2="32" y2="40" id="j" xlink:href="#a" gradientUnits="userSpaceOnUse" gradientTransform="matrix(2.86145 0 0 1.35424 -30.98 -4.746)"/><linearGradient id="a"><stop offset="0" stop-color="#fff"/><stop offset="1" stop-color="#fff" stop-opacity="0"/></linearGradient><linearGradient x1="24.118" y1="33.658" x2="-32.012" y2="33.658" id="i" xlink:href="#b" gradientUnits="userSpaceOnUse" gradientTransform="matrix(0 -.96728 1.06792 0 -3.944 28.182)"/><linearGradient id="b"><stop offset="0" stop-color="#fff"/><stop offset="1" stop-color="#fff" stop-opacity="0"/></linearGradient><linearGradient x1="18.601" y1=".854" x2="18.601" y2="49.956" id="g" xlink:href="#c" gradientUnits="userSpaceOnUse" gradientTransform="matrix(1.35276 0 0 1.14745 23.01 2.85)"/><linearGradient id="c"><stop offset="0" stop-color="#f4f4f4"/><stop offset="1" stop-color="#dbdbdb"/></linearGradient><linearGradient x1="-74.785" y1="54.703" x2="-74.785" y2="2.104" id="h" xlink:href="#d" gradientUnits="userSpaceOnUse" gradientTransform="matrix(1.09235 0 0 1.07384 103.38 1.57)"/><linearGradient id="d"><stop offset="0" stop-color="#aaa"/><stop offset="1" stop-color="#c8c8c8"/></linearGradient><linearGradient id="e"><stop offset="0"/><stop offset="1" stop-opacity="0"/></linearGradient><radialGradient cx="23.335" cy="41.636" r="22.627" fx="23.335" fy="41.636" id="f" xlink:href="#e" gradientUnits="userSpaceOnUse" gradientTransform="matrix(.8397 0 0 .24305 12.406 47.38)"/></defs><path d="M51 57.5c0 3.037-8.506 5.5-19 5.5s-19-2.463-19-5.5S21.506 52 32 52s19 2.463 19 5.5z" opacity=".3" fill="url(#f)" fill-rule="evenodd" overflow="visible"/><path d="M31.94 4.5c-3.66.083-7.783.295-11.243 2.565-.094.056-.18.124-.254.2-3.223 3.83-3.055 8.698-3.55 13.383-.65 10.373-.615 20.89 1.056 31.254v.04c.54 2.743 2.34 5.655 5.66 6.41.03.008.05.034.08.04v-.04c5.035 1.464 10.472 1.464 15.514.36 2.61-.57 5.316-2.104 6.256-4.887.004-.012-.004-.028 0-.04 1.227-3.325 1.204-6.748 1.564-9.857a.415.415 0 0 0 .042-.04c.67-9.972.625-20.04-.72-30.01-.185-1.416-.487-2.972-1.225-4.41-.73-1.42-1.924-2.706-3.68-3.405-.006-.002.01-.037 0-.04-.01-.005-.03.005-.04 0-3.066-1.305-6.42-1.41-9.384-1.522h-.086z" color="#000" fill="url(#g)" stroke="url(#h)" stroke-linejoin="round" overflow="visible"/><path d="M32.002 5.5c-3.703.082-7.662.328-10.807 2.365-3.224 3.523-2.674 8.444-3.283 12.744-.66 10.4-.664 20.92 1.022 31.24.494 2.46 2.134 4.96 4.906 5.54 4.898 1.42 10.237 1.396 15.212.32 2.374-.513 4.672-1.85 5.438-4.134 1.168-3.1 1.187-6.453 1.567-9.69.683-10 .666-20.088-.692-30.038-.36-2.7-1.324-5.807-4.274-6.937-2.82-1.195-6.04-1.31-9.08-1.42z" fill="none" stroke="url(#i)" stroke-linecap="round" stroke-linejoin="round" overflow="visible"/><path d="M32 6c-3.575.08-7.38.335-10.417 2.333-3.112 3.457-2.578 8.28-3.166 12.5-.457 7.308-.6 14.65-.042 21.96l26.667-27.585c-.042-.333-.08-.666-.125-1-.348-2.647-1.277-5.724-4.125-6.833C38.067 6.202 34.942 6.11 32 6z" opacity=".4" fill="url(#j)" overflow="visible"/></svg>
